;FLAVOR:Marlin
;TIME:51569
;Filament used: 40.7222m
;Layer height: 0.16
;MINX:4
;MINY:70
;MINZ:0.2
;MAXX:216
;MAXY:150
;MAXZ:79.8
;Generated with Cura_SteamEngine 4.8.0
M140 S50
M105
M190 S50
M104 S200
M105
M109 S200
M82 ;absolute extrusion mode
; Ender 3 Custom Start G-code
G92 E0 ; Reset Extruder
G28 ; Home all axes
G1 Z2.0 F3000 ; Move Z Axis up little to prevent scratching of Heat Bed
G1 X0.1 Y20 Z0.3 F5000.0 ; Move to start position
G1 X0.1 Y200.0 Z0.3 F1500.0 E15 ; Draw the first line
G1 X0.4 Y200.0 Z0.3 F5000.0 ; Move to side a little
G1 X0.4 Y20 Z0.3 F1500.0 E30 ; Draw the second line
G92 E0 ; Reset Extruder
G1 Z2.0 F3000 ; Move Z Axis up little to prevent scratching of Heat Bed
G1 X5 Y20 Z0.3 F5000.0 ; Move over to prevent blob squish
G92 E0
G92 E0
G1 F2700 E-5
;LAYER_COUNT:401
;LAYER:0
M107
G0 F6000 X12.903 Y70.213 Z0.2
;TYPE:SKIRT
G1 F2700 E0
G1 F1200 X13.83 Y70.072 E0.03119
G1 X14.701 Y70.013 E0.06022
G1 X15.022 Y70.004 E0.0709
G1 X15.33 Y70 E0.08115
G1 X204.293 Y70 E6.36608
G1 X205.149 Y70.011 E6.39456
G1 X206.085 Y70.065 E6.42574
G1 X207.013 Y70.197 E6.45692
G1 X207.927 Y70.409 E6.48812
G1 X208.819 Y70.698 E6.51931
G1 X209.684 Y71.061 E6.55051
G1 X210.514 Y71.497 E6.58169
G1 X211.305 Y72.002 E6.61291
G1 X212.049 Y72.573 E6.6441
G1 X212.742 Y73.205 E6.67529
G1 X213.379 Y73.893 E6.70648
G1 X213.954 Y74.634 E6.73767
G1 X214.465 Y75.42 E6.76886
G1 X214.907 Y76.248 E6.80007
G1 X215.276 Y77.11 E6.83126
G1 X215.571 Y78 E6.86245
G1 X215.789 Y78.912 E6.89363
G1 X215.929 Y79.84 E6.92485
G1 X215.987 Y80.701 E6.95355
G1 X215.996 Y81.021 E6.9642
G1 X216 Y81.33 E6.97448
G1 X215.999 Y138.4 E8.87263
G1 X215.99 Y139.127 E8.89681
G1 X215.939 Y140.064 E8.92802
G1 X215.807 Y140.992 E8.9592
G1 X215.598 Y141.906 E8.99038
G1 X215.311 Y142.799 E9.02158
G1 X214.949 Y143.665 E9.0528
G1 X214.515 Y144.496 E9.08398
G1 X214.011 Y145.287 E9.11518
G1 X213.442 Y146.032 E9.14636
G1 X212.811 Y146.727 E9.17758
G1 X212.124 Y147.365 E9.20876
G1 X211.385 Y147.942 E9.23995
G1 X210.599 Y148.454 E9.27115
G1 X209.773 Y148.897 E9.30232
G1 X208.911 Y149.269 E9.33355
G1 X208.022 Y149.565 E9.36471
G1 X207.11 Y149.785 E9.39591
G1 X206.183 Y149.926 E9.4271
G1 X205.299 Y149.987 E9.45657
G1 X204.978 Y149.996 E9.46725
G1 X204.67 Y150 E9.4775
G1 X15.565 Y149.999 E15.76716
G1 X14.867 Y149.99 E15.79037
G1 X13.931 Y149.938 E15.82155
G1 X13.002 Y149.806 E15.85276
G1 X12.088 Y149.596 E15.88395
G1 X11.195 Y149.309 E15.91515
G1 X10.33 Y148.946 E15.94635
G1 X9.499 Y148.512 E15.97753
G1 X8.708 Y148.008 E16.00873
G1 X7.963 Y147.438 E16.03993
G1 X7.269 Y146.807 E16.07113
G1 X6.632 Y146.12 E16.10229
G1 X6.055 Y145.38 E16.1335
G1 X5.543 Y144.594 E16.1647
G1 X5.1 Y143.767 E16.1959
G1 X4.729 Y142.906 E16.22708
G1 X4.433 Y142.016 E16.25828
G1 X4.214 Y141.104 E16.28947
G1 X4.073 Y140.177 E16.32066
G1 X4.013 Y139.288 E16.3503
G1 X4.004 Y138.955 E16.36138
G1 X4 Y138.658 E16.37126
G1 X4.001 Y81.525 E18.27151
G1 X4.01 Y80.86 E18.29363
G1 X4.063 Y79.924 E18.32481
G1 X4.195 Y78.995 E18.35602
G1 X4.406 Y78.081 E18.38722
G1 X4.694 Y77.189 E18.41839
G1 X5.057 Y76.324 E18.44959
G1 X5.492 Y75.493 E18.48079
G1 X5.996 Y74.703 E18.51196
G1 X6.566 Y73.958 E18.54316
G1 X7.198 Y73.264 E18.57438
G1 X7.886 Y72.627 E18.60556
G1 X8.626 Y72.051 E18.63675
G1 X9.412 Y71.539 E18.66795
G1 X10.239 Y71.097 E18.69914
G1 X11.101 Y70.727 E18.73034
G1 X11.991 Y70.431 E18.76153
G1 X12.903 Y70.213 E18.79272
G0 F6000 X13.245 Y70.557
G1 F1200 X14.159 Y70.443 E18.82336
G1 X14.712 Y70.413 E18.84178
G1 X15.033 Y70.404 E18.85246
G1 X15.33 Y70.4 E18.86234
G1 X204.293 Y70.4 E25.14727
G1 X205.143 Y70.411 E25.17555
G1 X206.062 Y70.464 E25.20616
G1 X206.973 Y70.597 E25.23678
G1 X207.869 Y70.808 E25.2674
G1 X208.743 Y71.096 E25.29801
G1 X209.59 Y71.459 E25.32866
G1 X210.401 Y71.894 E25.35927
G1 X211.171 Y72.398 E25.38987
G1 X211.895 Y72.967 E25.4205
G1 X212.567 Y73.597 E25.45114
G1 X213.182 Y74.282 E25.48176
G1 X213.735 Y75.018 E25.51238
G1 X214.222 Y75.799 E25.54299
G1 X214.639 Y76.62 E25.57362
G1 X214.984 Y77.474 E25.60425
G1 X215.253 Y78.354 E25.63486
G1 X215.445 Y79.255 E25.6655
G1 X215.558 Y80.168 E25.69609
G1 X215.587 Y80.712 E25.71421
G1 X215.596 Y81.032 E25.72486
G1 X215.6 Y81.33 E25.73477
G1 X215.599 Y138.395 E27.63276
G1 X215.59 Y139.122 E27.65694
G1 X215.539 Y140.041 E27.68756
G1 X215.408 Y140.953 E27.7182
G1 X215.198 Y141.849 E27.74881
G1 X214.912 Y142.724 E27.77943
G1 X214.551 Y143.571 E27.81005
G1 X214.117 Y144.383 E27.84067
G1 X213.615 Y145.155 E27.8713
G1 X213.047 Y145.88 E27.90194
G1 X212.419 Y146.553 E27.93255
G1 X211.735 Y147.169 E27.96317
G1 X211 Y147.723 E27.99378
G1 X210.22 Y148.212 E28.0244
G1 X209.4 Y148.631 E28.05503
G1 X208.547 Y148.977 E28.08564
G1 X207.667 Y149.248 E28.11627
G1 X206.767 Y149.441 E28.14688
G1 X205.853 Y149.556 E28.17752
G1 X205.288 Y149.587 E28.19634
G1 X204.967 Y149.596 E28.20702
G1 X204.67 Y149.6 E28.2169
G1 X15.57 Y149.599 E34.50639
G1 X14.872 Y149.59 E34.52961
G1 X13.953 Y149.538 E34.56023
G1 X13.042 Y149.407 E34.59084
G1 X12.146 Y149.197 E34.62145
G1 X11.271 Y148.91 E34.65208
G1 X10.424 Y148.548 E34.68271
G1 X9.612 Y148.114 E34.71333
G1 X8.841 Y147.612 E34.74393
G1 X8.116 Y147.044 E34.77457
G1 X7.443 Y146.415 E34.80521
G1 X6.828 Y145.731 E34.8358
G1 X6.274 Y144.996 E34.86641
G1 X5.786 Y144.215 E34.89704
G1 X5.367 Y143.395 E34.92767
G1 X5.021 Y142.542 E34.95829
G1 X4.751 Y141.662 E34.9889
G1 X4.558 Y140.761 E35.01955
G1 X4.444 Y139.848 E35.05015
G1 X4.413 Y139.277 E35.06917
G1 X4.404 Y138.944 E35.08025
G1 X4.4 Y138.658 E35.08976
G1 X4.401 Y81.531 E36.98982
G1 X4.41 Y80.866 E37.01194
G1 X4.462 Y79.946 E37.04258
G1 X4.594 Y79.035 E37.0732
G1 X4.805 Y78.139 E37.10382
G1 X5.092 Y77.264 E37.13444
G1 X5.455 Y76.418 E37.16506
G1 X5.889 Y75.606 E37.19569
G1 X6.392 Y74.835 E37.2263
G1 X6.961 Y74.111 E37.25693
G1 X7.589 Y73.439 E37.28752
G1 X8.274 Y72.823 E37.31816
G1 X9.01 Y72.27 E37.34878
G1 X9.791 Y71.782 E37.37941
G1 X10.611 Y71.364 E37.41002
G1 X11.465 Y71.019 E37.44066
G1 X12.345 Y70.749 E37.47127
G1 X13.245 Y70.557 E37.50188
G0 F6000 X12.696 Y71.075
G1 F1200 X13.584 Y70.909 E37.53193
G1 X14.723 Y70.813 E37.56995
G1 X15.044 Y70.804 E37.58063
G1 X15.33 Y70.8 E37.59014
G1 X204.293 Y70.8 E43.87508
G1 X205.137 Y70.811 E43.90315
G1 X206.039 Y70.864 E43.9332
G1 X206.932 Y70.996 E43.96323
G1 X207.81 Y71.207 E43.99326
G1 X208.666 Y71.495 E44.0233
G1 X209.493 Y71.857 E44.05332
G1 X210.285 Y72.292 E44.08338
G1 X211.036 Y72.794 E44.11342
G1 X211.739 Y73.361 E44.14346
G1 X212.389 Y73.988 E44.1735
G1 X212.981 Y74.67 E44.20354
G1 X213.511 Y75.401 E44.23357
G1 X213.973 Y76.177 E44.26361
G1 X214.366 Y76.99 E44.29364
G1 X214.684 Y77.835 E44.32367
G1 X214.927 Y78.705 E44.35371
G1 X215.092 Y79.593 E44.38375
G1 X215.187 Y80.723 E44.42147
G1 X215.196 Y81.043 E44.43212
G1 X215.2 Y81.33 E44.44166
G1 X215.199 Y138.39 E46.33949
G1 X215.19 Y139.117 E46.36367
G1 X215.139 Y140.019 E46.39372
G1 X215.008 Y140.913 E46.42377
G1 X214.799 Y141.791 E46.45379
G1 X214.513 Y142.648 E46.48384
G1 X214.152 Y143.476 E46.51388
G1 X213.72 Y144.268 E46.54389
G1 X213.219 Y145.02 E46.57394
G1 X212.653 Y145.724 E46.60399
G1 X212.028 Y146.375 E46.634
G1 X211.347 Y146.969 E46.66406
G1 X210.616 Y147.5 E46.69411
G1 X209.842 Y147.964 E46.72412
G1 X209.029 Y148.358 E46.75417
G1 X208.185 Y148.678 E46.78419
G1 X207.315 Y148.923 E46.81425
G1 X206.428 Y149.089 E46.84427
G1 X205.277 Y149.187 E46.88269
G1 X204.956 Y149.196 E46.89337
G1 X204.67 Y149.2 E46.90288
G1 X15.575 Y149.199 E53.19221
G1 X14.877 Y149.19 E53.21543
G1 X13.976 Y149.139 E53.24544
G1 X13.082 Y149.007 E53.2755
G1 X12.204 Y148.798 E53.30552
G1 X11.347 Y148.511 E53.33558
G1 X10.52 Y148.15 E53.36559
G1 X9.727 Y147.717 E53.39564
G1 X8.976 Y147.216 E53.42567
G1 X8.272 Y146.65 E53.45571
G1 X7.621 Y146.024 E53.48575
G1 X7.028 Y145.343 E53.51578
G1 X6.498 Y144.612 E53.54581
G1 X6.034 Y143.837 E53.57586
G1 X5.64 Y143.024 E53.60591
G1 X5.32 Y142.18 E53.63593
G1 X5.076 Y141.31 E53.66598
G1 X4.91 Y140.422 E53.69603
G1 X4.813 Y139.267 E53.73458
G1 X4.804 Y138.934 E53.74566
G1 X4.8 Y138.658 E53.75484
G1 X4.801 Y81.536 E55.65472
G1 X4.81 Y80.871 E55.67684
G1 X4.862 Y79.969 E55.70689
G1 X4.994 Y79.076 E55.73692
G1 X5.204 Y78.198 E55.76694
G1 X5.491 Y77.341 E55.797
G1 X5.853 Y76.514 E55.82703
G1 X6.286 Y75.722 E55.85705
G1 X6.788 Y74.971 E55.8871
G1 X7.355 Y74.267 E55.91716
G1 X7.981 Y73.617 E55.94718
G1 X8.662 Y73.024 E55.97721
G1 X9.394 Y72.494 E56.00727
G1 X10.169 Y72.031 E56.0373
G1 X10.982 Y71.638 E56.06733
G1 X11.827 Y71.318 E56.09738
G1 X12.696 Y71.075 E56.12739
G1 F2700 E51.12739
;MESH:bottom_box.stl
G0 F6000 X16.21 Y80.335
G0 X16.21 Y82.21
G0 X16.182 Y137.818
G0 X204 Y138
;TYPE:WALL-INNER
G1 F2700 E56.12739
G1 F1200 X16 Y138 E62.3803
G1 X16 Y82 E64.24287
G1 X204 Y82 E70.49577
G1 X204 Y138 E72.35834
G0 F6000 X204.4 Y138.4
G1 F1200 X15.6 Y138.4 E78.63785
G1 X15.6 Y81.6 E80.52703
G1 X204.4 Y81.6 E86.80654
G1 X204.4 Y138.4 E88.69572
G0 F6000 X204.8 Y138.8
;TYPE:WALL-OUTER
G1 F1200 X15.2 Y138.8 E95.00184
G1 X15.2 Y81.2 E96.91762
G1 X204.8 Y81.2 E103.22375
G1 X204.8 Y138.8 E105.13953
G0 F6000 X204.53 Y138.53
G0 X203.89 Y137.61
G0 X203.61 Y137.61
;TYPE:SKIN
G1 F1200 X16.39 Y137.61 E111.36649
G1 X16.39 Y82.39 E113.20312
G1 X203.61 Y82.39 E119.43008
G1 X203.61 Y137.61 E121.2667
G1 F2700 E116.2667
G0 F6000 X203.89 Y137.61
G0 X203.89 Y82.958
G0 X203.449 Y82.958
G1 F2700 E121.2667
G1 F1200 X203.04 Y82.549 E121.28594
G0 F6000 X202.475 Y82.549
G1 F1200 X203.449 Y83.524 E121.33178
G0 F6000 X203.449 Y84.089
G1 F1200 X201.909 Y82.549 E121.40422
G0 F6000 X201.343 Y82.549
G1 F1200 X203.449 Y84.655 E121.50328
G0 F6000 X203.449 Y85.221
G1 F1200 X200.778 Y82.549 E121.62893
G0 F6000 X200.212 Y82.549
G1 F1200 X203.449 Y85.786 E121.78119
G0 F6000 X203.449 Y86.352
G1 F1200 X199.646 Y82.549 E121.96007
G0 F6000 X199.08 Y82.549
G1 F1200 X203.449 Y86.918 E122.16558
G0 F6000 X203.449 Y87.483
G1 F1200 X198.515 Y82.549 E122.39766
G0 F6000 X197.949 Y82.549
G1 F1200 X203.449 Y88.049 E122.65636
G0 F6000 X203.449 Y88.615
G1 F1200 X197.383 Y82.549 E122.94169
G0 F6000 X196.818 Y82.549
G1 F1200 X203.449 Y89.181 E123.25361
G0 F6000 X203.449 Y89.746
G1 F1200 X196.252 Y82.549 E123.59214
G0 F6000 X195.686 Y82.549
G1 F1200 X203.449 Y90.312 E123.95729
G0 F6000 X203.449 Y90.878
G1 F1200 X195.121 Y82.549 E124.34903
G0 F6000 X194.555 Y82.549
G1 F1200 X203.449 Y91.443 E124.76738
G0 F6000 X203.449 Y92.009
G1 F1200 X193.989 Y82.549 E125.21235
G0 F6000 X193.424 Y82.549
G1 F1200 X203.449 Y92.575 E125.68392
G0 F6000 X203.449 Y93.14
G1 F1200 X192.858 Y82.549 E126.18209
G0 F6000 X192.292 Y82.549
G1 F1200 X203.449 Y93.706 E126.70688
G0 F6000 X203.449 Y94.272
G1 F1200 X191.727 Y82.549 E127.25827
G0 F6000 X191.161 Y82.549
G1 F1200 X203.449 Y94.837 E127.83626
G0 F6000 X203.449 Y95.403
G1 F1200 X190.595 Y82.549 E128.44087
G0 F6000 X190.029 Y82.549
G1 F1200 X203.449 Y95.969 E129.07211
G0 F6000 X203.449 Y96.534
G1 F1200 X189.464 Y82.549 E129.72992
G0 F6000 X188.898 Y82.549
G1 F1200 X203.449 Y97.1 E130.41435
G0 F6000 X203.449 Y97.666
G1 F1200 X188.332 Y82.549 E131.12541
G0 F6000 X187.767 Y82.549
G1 F1200 X203.449 Y98.231 E131.86304
G0 F6000 X203.449 Y98.797
G1 F1200 X187.201 Y82.549 E132.6273
G0 F6000 X186.635 Y82.549
G1 F1200 X203.449 Y99.363 E133.41818
G0 F6000 X203.449 Y99.929
G1 F1200 X186.07 Y82.549 E134.23566
G0 F6000 X185.504 Y82.549
G1 F1200 X203.449 Y100.494 E135.07973
G0 F6000 X203.449 Y101.06
G1 F1200 X184.938 Y82.549 E135.95043
G0 F6000 X184.373 Y82.549
G1 F1200 X203.449 Y101.626 E136.84773
G0 F6000 X203.449 Y102.191
G1 F1200 X183.807 Y82.549 E137.77163
G0 F6000 X183.241 Y82.549
G1 F1200 X203.449 Y102.757 E138.72216
G0 F6000 X203.449 Y103.323
G1 F1200 X182.676 Y82.549 E139.69928
G0 F6000 X182.11 Y82.549
G1 F1200 X203.449 Y103.888 E140.703
G0 F6000 X203.449 Y104.454
G1 F1200 X181.544 Y82.549 E141.73334
G0 F6000 X180.979 Y82.549
G1 F1200 X203.449 Y105.02 E142.79029
G0 F6000 X203.449 Y105.585
G1 F1200 X180.413 Y82.549 E143.87383
G0 F6000 X179.847 Y82.549
G1 F1200 X203.449 Y106.151 E144.984
G0 F6000 X203.449 Y106.717
G1 F1200 X179.281 Y82.549 E146.12078
G0 F6000 X178.716 Y82.549
G1 F1200 X203.449 Y107.282 E147.28415
G0 F6000 X203.449 Y107.848
G1 F1200 X178.15 Y82.549 E148.47414
G0 F6000 X177.584 Y82.549
G1 F1200 X203.449 Y108.414 E149.69075
G0 F6000 X203.449 Y108.98
G1 F1200 X177.019 Y82.549 E150.93396
G0 F6000 X176.453 Y82.549
G1 F1200 X203.449 Y109.545 E152.20377
G0 F6000 X203.449 Y110.111
G1 F1200 X175.887 Y82.549 E153.5002
G0 F6000 X175.322 Y82.549
G1 F1200 X203.449 Y110.677 E154.82323
G0 F6000 X203.449 Y111.242
G1 F1200 X174.756 Y82.549 E156.17286
G0 F6000 X174.19 Y82.549
G1 F1200 X203.449 Y111.808 E157.54911
G0 F6000 X203.449 Y112.374
G1 F1200 X173.625 Y82.549 E158.95197
G0 F6000 X173.059 Y82.549
G1 F1200 X203.449 Y112.939 E160.38142
G0 F6000 X203.449 Y113.505
G1 F1200 X172.493 Y82.549 E161.83749
G0 F6000 X171.928 Y82.549
G1 F1200 X203.449 Y114.071 E163.32017
G0 F6000 X203.449 Y114.636
G1 F1200 X171.362 Y82.549 E164.82944
G0 F6000 X170.796 Y82.549
G1 F1200 X203.449 Y115.202 E166.36534
G0 F6000 X203.449 Y115.768
G1 F1200 X170.231 Y82.549 E167.92784
G0 F6000 X169.665 Y82.549
G1 F1200 X203.449 Y116.333 E169.51693
G0 F6000 X203.449 Y116.899
G1 F1200 X169.099 Y82.549 E171.13265
G0 F6000 X168.533 Y82.549
G1 F1200 X203.449 Y117.465 E172.77499
G0 F6000 X203.449 Y118.03
G1 F1200 X167.968 Y82.549 E174.44391
G0 F6000 X167.402 Y82.549
G1 F1200 X203.449 Y118.596 E176.13945
G0 F6000 X203.449 Y119.162
G1 F1200 X166.836 Y82.549 E177.86161
G0 F6000 X166.271 Y82.549
G1 F1200 X203.449 Y119.728 E179.61038
G0 F6000 X203.449 Y120.293
G1 F1200 X165.705 Y82.549 E181.38574
G0 F6000 X165.139 Y82.549
G1 F1200 X203.449 Y120.859 E183.18772
G0 F6000 X203.449 Y121.425
G1 F1200 X164.574 Y82.549 E185.01631
G0 F6000 X164.008 Y82.549
G1 F1200 X203.449 Y121.99 E186.87149
G0 F6000 X203.449 Y122.556
G1 F1200 X163.442 Y82.549 E188.7533
G0 F6000 X162.877 Y82.549
G1 F1200 X203.449 Y123.122 E190.6617
G0 F6000 X203.449 Y123.687
G1 F1200 X162.311 Y82.549 E192.59671
G0 F6000 X161.745 Y82.549
G1 F1200 X203.449 Y124.253 E194.55834
G0 F6000 X203.449 Y124.819
G1 F1200 X161.18 Y82.549 E196.54656
G0 F6000 X160.614 Y82.549
G1 F1200 X203.449 Y125.384 E198.56139
G0 F6000 X203.449 Y125.95
G1 F1200 X160.048 Y82.549 E200.60284
G0 F6000 X159.482 Y82.549
G1 F1200 X203.449 Y126.516 E202.67091
G0 F6000 X203.449 Y127.081
G1 F1200 X158.917 Y82.549 E204.76556
G0 F6000 X158.351 Y82.549
G1 F1200 X203.449 Y127.647 E206.88684
G0 F6000 X203.449 Y128.213
G1 F1200 X157.785 Y82.549 E209.03473
G0 F6000 X157.22 Y82.549
G1 F1200 X203.449 Y128.778 E211.2092
G0 F6000 X203.449 Y129.344
G1 F1200 X156.654 Y82.549 E213.41029
G0 F6000 X156.088 Y82.549
G1 F1200 X203.449 Y129.91 E215.63801
G0 F6000 X203.449 Y130.476
G1 F1200 X155.523 Y82.549 E217.89233
G0 F6000 X154.957 Y82.549
G1 F1200 X203.449 Y131.041 E220.17324
G0 F6000 X203.449 Y131.607
G1 F1200 X154.391 Y82.549 E222.48078
G0 F6000 X153.826 Y82.549
G1 F1200 X203.449 Y132.173 E224.81492
G0 F6000 X203.449 Y132.738
G1 F1200 X153.26 Y82.549 E227.17565
G0 F6000 X152.694 Y82.549
G1 F1200 X203.449 Y133.304 E229.56301
G0 F6000 X203.449 Y133.87
G1 F1200 X152.129 Y82.549 E231.97697
G0 F6000 X151.563 Y82.549
G1 F1200 X203.449 Y134.435 E234.41753
G0 F6000 X203.449 Y135.001
G1 F1200 X150.997 Y82.549 E236.88471
G0 F6000 X150.432 Y82.549
G1 F1200 X203.449 Y135.567 E239.37849
G0 F6000 X203.449 Y136.132
G1 F1200 X149.866 Y82.549 E241.89887
G0 F6000 X149.3 Y82.549
G1 F1200 X203.449 Y136.698 E244.44587
G0 F6000 X203.449 Y137.264
G1 F1200 X148.734 Y82.549 E247.0195
G0 F6000 X148.169 Y82.549
