;FLAVOR:Marlin
;TIME:19156
;Filament used: 13.9881m
;Layer height: 0.2
;MINX:14.5
;MINY:59.5
;MINZ:0.2
;MAXX:205.5
;MAXY:160.5
;MAXZ:13
;Generated with Cura_SteamEngine 4.8.0
M140 S60
M105
M190 S60
M104 S200
M105
M109 S200
M82 ;absolute extrusion mode
; Ender 3 Custom Start G-code
G92 E0 ; Reset Extruder
G28 ; Home all axes
G1 Z2.0 F3000 ; Move Z Axis up little to prevent scratching of Heat Bed
G1 X0.1 Y20 Z0.3 F5000.0 ; Move to start position
G1 X0.1 Y200.0 Z0.3 F1500.0 E15 ; Draw the first line
G1 X0.4 Y200.0 Z0.3 F5000.0 ; Move to side a little
G1 X0.4 Y20 Z0.3 F1500.0 E30 ; Draw the second line
G92 E0 ; Reset Extruder
G1 Z2.0 F3000 ; Move Z Axis up little to prevent scratching of Heat Bed
G1 X5 Y20 Z0.3 F5000.0 ; Move over to prevent blob squish
G92 E0
G92 E0
G1 F1500 E-6.5
;LAYER_COUNT:65
;LAYER:0
M107
G0 F6000 X21.601 Y60.227 Z0.2
;TYPE:SKIRT
G1 F1500 E0
G1 F1200 X22.491 Y59.931 E0.0312
G1 X23.403 Y59.713 E0.06238
G1 X24.33 Y59.572 E0.09357
G1 X25.201 Y59.513 E0.12261
G1 X25.522 Y59.504 E0.13329
G1 X25.83 Y59.5 E0.14353
G1 X193.793 Y59.5 E5.73
G1 X194.649 Y59.511 E5.75848
G1 X195.585 Y59.565 E5.78966
G1 X196.513 Y59.697 E5.82084
G1 X197.427 Y59.909 E5.85204
G1 X198.319 Y60.198 E5.88323
G1 X199.184 Y60.561 E5.91443
G1 X200.014 Y60.997 E5.94561
G1 X200.805 Y61.502 E5.97683
G1 X201.549 Y62.073 E6.00802
G1 X202.242 Y62.705 E6.03921
G1 X202.879 Y63.393 E6.0704
G1 X203.454 Y64.134 E6.1016
G1 X203.965 Y64.92 E6.13278
G1 X204.407 Y65.748 E6.16399
G1 X204.776 Y66.61 E6.19518
G1 X205.071 Y67.5 E6.22637
G1 X205.289 Y68.412 E6.25755
G1 X205.429 Y69.34 E6.28877
G1 X205.487 Y70.201 E6.31747
G1 X205.496 Y70.521 E6.32812
G1 X205.5 Y70.83 E6.3384
G1 X205.499 Y148.9 E8.93502
G1 X205.49 Y149.627 E8.9592
G1 X205.439 Y150.564 E8.99041
G1 X205.307 Y151.492 E9.02158
G1 X205.098 Y152.406 E9.05277
G1 X204.811 Y153.299 E9.08397
G1 X204.449 Y154.165 E9.11518
G1 X204.015 Y154.996 E9.14637
G1 X203.511 Y155.787 E9.17756
G1 X202.942 Y156.532 E9.20874
G1 X202.311 Y157.227 E9.23996
G1 X201.624 Y157.865 E9.27115
G1 X200.885 Y158.442 E9.30233
G1 X200.099 Y158.954 E9.33353
G1 X199.273 Y159.397 E9.3647
G1 X198.411 Y159.769 E9.39593
G1 X197.522 Y160.065 E9.42709
G1 X196.61 Y160.285 E9.4583
G1 X195.683 Y160.426 E9.48948
G1 X194.799 Y160.487 E9.51896
G1 X194.478 Y160.496 E9.52964
G1 X194.17 Y160.5 E9.53988
G1 X26.065 Y160.499 E15.13108
G1 X25.367 Y160.49 E15.15429
G1 X24.431 Y160.438 E15.18547
G1 X23.502 Y160.306 E15.21668
G1 X22.588 Y160.096 E15.24787
G1 X21.695 Y159.809 E15.27907
G1 X20.83 Y159.446 E15.31027
G1 X19.999 Y159.012 E15.34145
G1 X19.208 Y158.508 E15.37265
G1 X18.463 Y157.938 E15.40385
G1 X17.769 Y157.307 E15.43505
G1 X17.132 Y156.62 E15.46621
G1 X16.555 Y155.88 E15.49742
G1 X16.043 Y155.094 E15.52862
G1 X15.6 Y154.267 E15.55982
G1 X15.229 Y153.406 E15.591
G1 X14.933 Y152.516 E15.6222
G1 X14.714 Y151.604 E15.65339
G1 X14.573 Y150.677 E15.68458
G1 X14.513 Y149.788 E15.71422
G1 X14.504 Y149.455 E15.7253
G1 X14.5 Y149.158 E15.73518
G1 X14.501 Y71.025 E18.33389
G1 X14.51 Y70.36 E18.35601
G1 X14.563 Y69.424 E18.38719
G1 X14.695 Y68.495 E18.4184
G1 X14.906 Y67.581 E18.4496
G1 X15.194 Y66.689 E18.48078
G1 X15.557 Y65.824 E18.51198
G1 X15.992 Y64.993 E18.54317
G1 X16.496 Y64.203 E18.57434
G1 X17.066 Y63.458 E18.60554
G1 X17.698 Y62.764 E18.63676
G1 X18.386 Y62.127 E18.66794
G1 X19.126 Y61.551 E18.69913
G1 X19.912 Y61.039 E18.73033
G1 X20.739 Y60.597 E18.76152
G1 X21.601 Y60.227 E18.79272
G0 F6000 X21.965 Y60.519
G1 F1200 X22.845 Y60.249 E18.82334
G1 X23.745 Y60.057 E18.85395
G1 X24.659 Y59.943 E18.88458
G1 X25.212 Y59.913 E18.903
G1 X25.533 Y59.904 E18.91368
G1 X25.83 Y59.9 E18.92356
G1 X193.793 Y59.9 E24.51003
G1 X194.643 Y59.911 E24.53831
G1 X195.562 Y59.964 E24.56892
G1 X196.473 Y60.097 E24.59954
G1 X197.369 Y60.308 E24.63016
G1 X198.243 Y60.596 E24.66077
G1 X199.09 Y60.959 E24.69142
G1 X199.901 Y61.394 E24.72203
G1 X200.671 Y61.898 E24.75263
G1 X201.395 Y62.467 E24.78326
G1 X202.067 Y63.097 E24.8139
G1 X202.682 Y63.782 E24.84452
G1 X203.235 Y64.518 E24.87514
G1 X203.722 Y65.299 E24.90575
G1 X204.139 Y66.12 E24.93638
G1 X204.484 Y66.974 E24.96701
G1 X204.753 Y67.854 E24.99762
G1 X204.945 Y68.755 E25.02826
G1 X205.058 Y69.668 E25.05885
G1 X205.087 Y70.212 E25.07697
G1 X205.096 Y70.532 E25.08762
G1 X205.1 Y70.83 E25.09753
G1 X205.099 Y148.895 E27.69399
G1 X205.09 Y149.622 E27.71817
G1 X205.039 Y150.541 E27.74878
G1 X204.908 Y151.453 E27.77943
G1 X204.698 Y152.349 E27.81003
G1 X204.412 Y153.224 E27.84065
G1 X204.051 Y154.071 E27.87128
G1 X203.617 Y154.883 E27.9019
G1 X203.115 Y155.655 E27.93253
G1 X202.547 Y156.38 E27.96316
G1 X201.919 Y157.053 E27.99377
G1 X201.235 Y157.669 E28.02439
G1 X200.5 Y158.223 E28.055
G1 X199.72 Y158.712 E28.08562
G1 X198.9 Y159.131 E28.11625
G1 X198.047 Y159.477 E28.14687
G1 X197.167 Y159.748 E28.17749
G1 X196.267 Y159.941 E28.20811
G1 X195.353 Y160.056 E28.23875
G1 X194.788 Y160.087 E28.25757
G1 X194.467 Y160.096 E28.26825
G1 X194.17 Y160.1 E28.27813
G1 X26.07 Y160.099 E33.86915
G1 X25.372 Y160.09 E33.89237
G1 X24.453 Y160.038 E33.92299
G1 X23.542 Y159.907 E33.9536
G1 X22.646 Y159.697 E33.98421
G1 X21.771 Y159.41 E34.01484
G1 X20.924 Y159.048 E34.04547
G1 X20.112 Y158.614 E34.07609
G1 X19.341 Y158.112 E34.10669
G1 X18.616 Y157.544 E34.13733
G1 X17.943 Y156.915 E34.16797
G1 X17.328 Y156.231 E34.19856
G1 X16.774 Y155.496 E34.22917
G1 X16.286 Y154.715 E34.2598
G1 X15.867 Y153.895 E34.29043
G1 X15.521 Y153.042 E34.32105
G1 X15.251 Y152.162 E34.35166
G1 X15.058 Y151.261 E34.38231
G1 X14.944 Y150.348 E34.41291
G1 X14.913 Y149.777 E34.43193
G1 X14.904 Y149.444 E34.44301
G1 X14.9 Y149.158 E34.45252
G1 X14.901 Y71.031 E37.05104
G1 X14.91 Y70.366 E37.07316
G1 X14.962 Y69.446 E37.10381
G1 X15.094 Y68.535 E37.13442
G1 X15.305 Y67.639 E37.16504
G1 X15.592 Y66.764 E37.19567
G1 X15.955 Y65.918 E37.22629
G1 X16.389 Y65.106 E37.25691
G1 X16.892 Y64.335 E37.28753
G1 X17.461 Y63.611 E37.31815
G1 X18.089 Y62.939 E37.34875
G1 X18.774 Y62.323 E37.37939
G1 X19.51 Y61.77 E37.41001
G1 X20.291 Y61.282 E37.44064
G1 X21.111 Y60.864 E37.47125
G1 X21.965 Y60.519 E37.50188
G0 F6000 X21.482 Y61.138
G1 F1200 X22.327 Y60.818 E37.53194
G1 X23.196 Y60.575 E37.56195
G1 X24.084 Y60.409 E37.59199
G1 X25.223 Y60.313 E37.63001
G1 X25.544 Y60.304 E37.64069
G1 X25.83 Y60.3 E37.65021
G1 X193.793 Y60.3 E43.23668
G1 X194.637 Y60.311 E43.26475
G1 X195.539 Y60.364 E43.2948
G1 X196.432 Y60.496 E43.32483
G1 X197.31 Y60.707 E43.35486
G1 X198.166 Y60.995 E43.3849
G1 X198.993 Y61.357 E43.41493
G1 X199.785 Y61.792 E43.44498
G1 X200.536 Y62.294 E43.47503
G1 X201.239 Y62.861 E43.50506
G1 X201.889 Y63.488 E43.5351
G1 X202.481 Y64.17 E43.56514
G1 X203.011 Y64.901 E43.59517
G1 X203.473 Y65.677 E43.62521
G1 X203.866 Y66.49 E43.65524
G1 X204.184 Y67.335 E43.68527
G1 X204.427 Y68.205 E43.71532
G1 X204.592 Y69.093 E43.74536
G1 X204.687 Y70.223 E43.78307
G1 X204.696 Y70.543 E43.79372
G1 X204.7 Y70.83 E43.80327
G1 X204.699 Y148.89 E46.39955
G1 X204.69 Y149.617 E46.42373
G1 X204.639 Y150.519 E46.45378
G1 X204.508 Y151.413 E46.48384
G1 X204.299 Y152.291 E46.51385
G1 X204.013 Y153.148 E46.5439
G1 X203.652 Y153.976 E46.57395
G1 X203.22 Y154.768 E46.60395
G1 X202.719 Y155.52 E46.63401
G1 X202.153 Y156.224 E46.66405
G1 X201.528 Y156.875 E46.69407
G1 X200.847 Y157.469 E46.72412
G1 X200.116 Y158 E46.75417
G1 X199.342 Y158.464 E46.78419
G1 X198.529 Y158.858 E46.81424
G1 X197.685 Y159.178 E46.84426
G1 X196.815 Y159.423 E46.87432
G1 X195.928 Y159.589 E46.90433
G1 X194.777 Y159.687 E46.94275
G1 X194.456 Y159.696 E46.95343
G1 X194.17 Y159.7 E46.96295
G1 X26.075 Y159.699 E52.55381
G1 X25.377 Y159.69 E52.57703
G1 X24.476 Y159.639 E52.60704
G1 X23.582 Y159.507 E52.6371
G1 X22.704 Y159.298 E52.66712
G1 X21.847 Y159.011 E52.69718
G1 X21.02 Y158.65 E52.72719
G1 X20.227 Y158.217 E52.75724
G1 X19.476 Y157.716 E52.78727
G1 X18.772 Y157.15 E52.81731
G1 X18.121 Y156.524 E52.84735
G1 X17.528 Y155.843 E52.87739
G1 X16.998 Y155.112 E52.90742
G1 X16.534 Y154.337 E52.93746
G1 X16.14 Y153.524 E52.96751
G1 X15.82 Y152.68 E52.99753
G1 X15.576 Y151.81 E53.02758
G1 X15.41 Y150.922 E53.05763
G1 X15.313 Y149.767 E53.09618
G1 X15.304 Y149.434 E53.10726
G1 X15.3 Y149.158 E53.11644
G1 X15.301 Y71.036 E55.71479
G1 X15.31 Y70.371 E55.73691
G1 X15.362 Y69.469 E55.76696
G1 X15.494 Y68.576 E55.79698
G1 X15.704 Y67.698 E55.82701
G1 X15.991 Y66.841 E55.85707
G1 X16.353 Y66.014 E55.8871
G1 X16.786 Y65.222 E55.91712
G1 X17.288 Y64.471 E55.94716
G1 X17.855 Y63.767 E55.97723
G1 X18.481 Y63.117 E56.00724
G1 X19.162 Y62.524 E56.03728
G1 X19.894 Y61.994 E56.06733
G1 X20.669 Y61.531 E56.09736
G1 X21.482 Y61.138 E56.12739
G1 F1500 E49.62739
;MESH:bread_box.stl
G0 F6000 X26.31 Y69.835
G0 X26.31 Y71.31
G0 X26.282 Y148.718
G0 X193.9 Y148.9
;TYPE:WALL-INNER
G1 F1500 E56.12739
G1 F1200 X26.1 Y148.9 E61.70844
G1 X26.1 Y71.1 E64.29608
G1 X193.9 Y71.1 E69.87713
G1 X193.9 Y148.9 E72.46477
G0 F6000 X194.3 Y149.3
;TYPE:WALL-OUTER
G1 F1200 X25.7 Y149.3 E78.07243
G1 X25.7 Y70.7 E80.68668
G1 X194.3 Y70.7 E86.29434
G1 X194.3 Y149.3 E88.90858
G0 F6000 X194.03 Y149.03
G0 X193.79 Y148.51
G0 X193.51 Y148.51
;TYPE:SKIN
G1 F1200 X26.49 Y148.51 E94.46369
G1 X26.49 Y71.49 E97.02539
G1 X193.51 Y71.49 E102.58049
G1 X193.51 Y148.51 E105.14219
G1 F1500 E98.64219
G0 F6000 X193.79 Y148.51
G0 X193.79 Y71.726
G0 X193.349 Y71.726
G1 F1500 E105.14219
G1 F1200 X193.272 Y71.65 E105.14579
G0 F6000 X192.707 Y71.65
G1 F1200 X193.349 Y72.292 E105.17599
G0 F6000 X193.349 Y72.858
G1 F1200 X192.141 Y71.65 E105.23281
G0 F6000 X191.575 Y71.65
G1 F1200 X193.349 Y73.423 E105.31623
G0 F6000 X193.349 Y73.989
G1 F1200 X191.01 Y71.65 E105.42625
G0 F6000 X190.444 Y71.65
G1 F1200 X193.349 Y74.555 E105.56289
G0 F6000 X193.349 Y75.12
G1 F1200 X189.878 Y71.65 E105.72613
G0 F6000 X189.312 Y71.65
G1 F1200 X193.349 Y75.686 E105.91599
G0 F6000 X193.349 Y76.252
G1 F1200 X188.747 Y71.65 E106.13246
G0 F6000 X188.181 Y71.65
G1 F1200 X193.349 Y76.817 E106.37552
G0 F6000 X193.349 Y77.383
G1 F1200 X187.615 Y71.65 E106.64521
G0 F6000 X187.05 Y71.65
G1 F1200 X193.349 Y77.949 E106.94149
G0 F6000 X193.349 Y78.515
G1 F1200 X186.484 Y71.65 E107.2644
G0 F6000 X185.918 Y71.65
G1 F1200 X193.349 Y79.08 E107.61391
G0 F6000 X193.349 Y79.646
G1 F1200 X185.353 Y71.65 E107.99002
G0 F6000 X184.787 Y71.65
G1 F1200 X193.349 Y80.212 E108.39275
G0 F6000 X193.349 Y80.777
G1 F1200 X184.221 Y71.65 E108.82208
G0 F6000 X183.656 Y71.65
G1 F1200 X193.349 Y81.343 E109.27801
G0 F6000 X193.349 Y81.909
G1 F1200 X183.09 Y71.65 E109.76056
G0 F6000 X182.524 Y71.65
G1 F1200 X193.349 Y82.474 E110.26971
G0 F6000 X193.349 Y83.04
G1 F1200 X181.959 Y71.65 E110.80546
G0 F6000 X181.393 Y71.65
G1 F1200 X193.349 Y83.606 E111.36783
G0 F6000 X193.349 Y84.171
G1 F1200 X180.827 Y71.65 E111.95681
G0 F6000 X180.262 Y71.65
G1 F1200 X193.349 Y84.737 E112.57238
G0 F6000 X193.349 Y85.303
G1 F1200 X179.696 Y71.65 E113.21457
G0 F6000 X179.13 Y71.65
G1 F1200 X193.349 Y85.868 E113.88337
G0 F6000 X193.349 Y86.434
G1 F1200 X178.564 Y71.65 E114.57879
G0 F6000 X177.999 Y71.65
G1 F1200 X193.349 Y87 E115.3008
G0 F6000 X193.349 Y87.565
G1 F1200 X177.433 Y71.65 E116.04942
G0 F6000 X176.867 Y71.65
G1 F1200 X193.349 Y88.131 E116.82466
G0 F6000 X193.349 Y88.697
G1 F1200 X176.302 Y71.65 E117.6265
G0 F6000 X175.736 Y71.65
G1 F1200 X193.349 Y89.263 E118.45496
G0 F6000 X193.349 Y89.828
G1 F1200 X175.17 Y71.65 E119.31002
G0 F6000 X174.605 Y71.65
G1 F1200 X193.349 Y90.394 E120.19168
G0 F6000 X193.349 Y90.96
G1 F1200 X174.039 Y71.65 E121.09996
G0 F6000 X173.473 Y71.65
G1 F1200 X193.349 Y91.525 E122.03485
G0 F6000 X193.349 Y92.091
G1 F1200 X172.908 Y71.65 E122.99633
G0 F6000 X172.342 Y71.65
G1 F1200 X193.349 Y92.657 E123.98443
G0 F6000 X193.349 Y93.222
G1 F1200 X171.776 Y71.65 E124.99914
G0 F6000 X171.211 Y71.65
G1 F1200 X193.349 Y93.788 E126.04044
G0 F6000 X193.349 Y94.354
G1 F1200 X170.645 Y71.65 E127.10837
G0 F6000 X170.079 Y71.65
G1 F1200 X193.349 Y94.919 E128.20289
G0 F6000 X193.349 Y95.485
G1 F1200 X169.514 Y71.65 E129.32402
G0 F6000 X168.948 Y71.65
G1 F1200 X193.349 Y96.051 E130.47177
G0 F6000 X193.349 Y96.616
G1 F1200 X168.382 Y71.65 E131.64611
G0 F6000 X167.816 Y71.65
G1 F1200 X193.349 Y97.182 E132.84709
G0 F6000 X193.349 Y97.748
G1 F1200 X167.251 Y71.65 E134.07466
G0 F6000 X166.685 Y71.65
G1 F1200 X193.349 Y98.314 E135.32885
G0 F6000 X193.349 Y98.879
G1 F1200 X166.119 Y71.65 E136.60964
G0 F6000 X165.554 Y71.65
G1 F1200 X193.349 Y99.445 E137.91703
G0 F6000 X193.349 Y100.011
G1 F1200 X164.988 Y71.65 E139.25105
G0 F6000 X164.422 Y71.65
G1 F1200 X193.349 Y100.576 E140.61166
G0 F6000 X193.349 Y101.142
G1 F1200 X163.857 Y71.65 E141.99887
G0 F6000 X163.291 Y71.65
G1 F1200 X193.349 Y101.708 E143.41271
G0 F6000 X193.349 Y102.273
G1 F1200 X162.725 Y71.65 E144.85315
G0 F6000 X162.16 Y71.65
G1 F1200 X193.349 Y102.839 E146.32018
G0 F6000 X193.349 Y103.405
G1 F1200 X161.594 Y71.65 E147.81384
G0 F6000 X161.028 Y71.65
G1 F1200 X193.349 Y103.97 E149.3341
G0 F6000 X193.349 Y104.536
G1 F1200 X160.463 Y71.65 E150.88095
G0 F6000 X159.897 Y71.65
G1 F1200 X193.349 Y105.102 E152.45443
G0 F6000 X193.349 Y105.667
G1 F1200 X159.331 Y71.65 E154.05451
G0 F6000 X158.765 Y71.65
G1 F1200 X193.349 Y106.233 E155.68121
G0 F6000 X193.349 Y106.799
G1 F1200 X158.2 Y71.65 E157.33451
G0 F6000 X157.634 Y71.65
G1 F1200 X193.349 Y107.364 E159.01441
G0 F6000 X193.349 Y107.93
G1 F1200 X157.068 Y71.65 E160.72094
G0 F6000 X156.503 Y71.65
G1 F1200 X193.349 Y108.496 E162.45406
G0 F6000 X193.349 Y109.062
G1 F1200 X155.937 Y71.65 E164.21381
G0 F6000 X155.371 Y71.65
G1 F1200 X193.349 Y109.627 E166.00015
G0 F6000 X193.349 Y110.193
G1 F1200 X154.806 Y71.65 E167.8131
G0 F6000 X154.24 Y71.65
G1 F1200 X193.349 Y110.759 E169.65266
G0 F6000 X193.349 Y111.324
G1 F1200 X153.674 Y71.65 E171.51883
G0 F6000 X153.109 Y71.65
G1 F1200 X193.349 Y111.89 E173.4116
G0 F6000 X193.349 Y112.456
G1 F1200 X152.543 Y71.65 E175.33099
G0 F6000 X151.977 Y71.65
G1 F1200 X193.349 Y113.021 E177.27697
G0 F6000 X193.349 Y113.587
G1 F1200 X151.412 Y71.65 E179.24956
G0 F6000 X150.846 Y71.65
G1 F1200 X193.349 Y114.153 E181.24877
G0 F6000 X193.349 Y114.718
G1 F1200 X150.28 Y71.65 E183.27458
G0 F6000 X149.715 Y71.65
G1 F1200 X193.349 Y115.284 E185.32699
G0 F6000 X193.349 Y115.85
G1 F1200 X149.149 Y71.65 E187.40602
G0 F6000 X148.583 Y71.65
G1 F1200 X193.349 Y116.415 E189.51166
G0 F6000 X193.349 Y116.981
G1 F1200 X148.017 Y71.65 E191.64391
G0 F6000 X147.452 Y71.65
G1 F1200 X193.349 Y117.547 E193.80277
G0 F6000 X193.349 Y118.112
G1 F1200 X146.886 Y71.65 E195.98822
G0 F6000 X146.32 Y71.65
G1 F1200 X193.349 Y118.678 E198.2003
G0 F6000 X193.349 Y119.244
G1 F1200 X145.755 Y71.65 E200.43897
G0 F6000 X145.189 Y71.65
G1 F1200 X193.349 Y119.81 E202.70427
G0 F6000 X193.349 Y120.375
G1 F1200 X144.623 Y71.65 E204.99617
G0 F6000 X144.058 Y71.65
G1 F1200 X193.349 Y120.941 E207.31467
G0 F6000 X193.349 Y121.507
G1 F1200 X143.492 Y71.65 E209.65979
G0 F6000 X142.926 Y71.65
G1 F1200 X193.349 Y122.072 E212.03151
G0 F6000 X193.349 Y122.638
G1 F1200 X142.361 Y71.65 E214.42983
G0 F6000 X141.795 Y71.65
G1 F1200 X193.349 Y123.204 E216.85477
G0 F6000 X193.349 Y123.769
G1 F1200 X141.229 Y71.65 E219.30631
G0 F6000 X140.664 Y71.65
G1 F1200 X193.349 Y124.335 E221.78445
G0 F6000 X193.349 Y124.901
G1 F1200 X140.098 Y71.65 E224.28921
G0 F6000 X139.532 Y71.65
G1 F1200 X193.349 Y125.466 E226.82058
G0 F6000 X193.349 Y126.032
G1 F1200 X138.966 Y71.65 E229.37856
G0 F6000 X138.401 Y71.65
G1 F1200 X193.349 Y126.598 E231.96315
G0 F6000 X193.349 Y127.163
G1 F1200 X137.835 Y71.65 E234.57433
G0 F6000 X137.269 Y71.65
